packages/icons/src/svg/remote-engine.svg

<svg xmlns="http://www.w3.org/2000/svg" viewBox="0 0 16 16">
	<path d="M16 4.8V3.2h-1.6a1.657 1.657 0 0 0-1.6-1.6H12V0h-1.6v1.6H8.8V0H7.2v1.6H5.6V0H4v1.6h-.8a1.657 1.657 0 0 0-1.6 1.6H0v1.6h1.6v2.4H0v1.6h1.6v2.4H0v1.6h1.6a1.657 1.657 0 0 0 1.6 1.6H4V16h1.6v-1.6h1.6V16h1.6v-1.6h1.6V16H12v-1.6h.8a1.657 1.657 0 0 0 1.6-1.6H16v-1.6h-1.6V8.8H16V7.2h-1.6V4.8zm-5 2.4L5 13l2.4-5h-3l3-4.8h4.2L8 7.2z"/>
</svg>

<svg xmlns="http://www.w3.org/2000/svg" viewBox="0 0 16 16">
  <path id="remote_engine" d="M16,4.8V3.2H14.4a1.65669,1.65669,0,0,0-1.6-1.6H12V0H10.4V1.6H8.8V0H7.2V1.6H5.6V0H4V1.6H3.2A1.65669,1.65669,0,0,0,1.6,3.2H0V4.8H1.6V7.2H0V8.8H1.6v2.4H0v1.6H1.6a1.65669,1.65669,0,0,0,1.6,1.6H4V16H5.6V14.4H7.2V16H8.8V14.4h1.6V16H12V14.4h.8a1.65669,1.65669,0,0,0,1.6-1.6H16V11.2H14.4V8.8H16V7.2H14.4V4.8ZM11,7.2,5,13,7.4,8h-3l3-4.8h4.2L8,7.2Z"/>
</svg>
